templates/flag_icons/tn.svg

<?xml version="1.0" encoding="UTF-8" standalone="no"?>
<svg width="23px" height="17px" viewBox="0 0 23 17" version="1.1" xmlns="http://www.w3.org/2000/svg" xmlns:xlink="http://www.w3.org/1999/xlink">
    <!-- Generator: Sketch 3.7.2 (28276) - http://www.bohemiancoding.com/sketch -->
    <title>TN</title>
    <desc>Created with Sketch.</desc>
    <defs>
        <linearGradient x1="50%" y1="0%" x2="50%" y2="100%" id="linearGradient-1">
            <stop stop-color="#FFFFFF" offset="0%"></stop>
            <stop stop-color="#F0F0F0" offset="100%"></stop>
        </linearGradient>
        <rect id="path-2" x="0" y="0" width="21" height="15" rx="1.5"></rect>
        <filter x="-50%" y="-50%" width="200%" height="200%" filterUnits="objectBoundingBox" id="filter-4">
            <feOffset dx="0" dy="0.5" in="SourceAlpha" result="shadowOffsetOuter1"></feOffset>
            <feGaussianBlur stdDeviation="0.5" in="shadowOffsetOuter1" result="shadowBlurOuter1"></feGaussianBlur>
            <feColorMatrix values="0 0 0 0 0   0 0 0 0 0   0 0 0 0 0  0 0 0 0.16 0" type="matrix" in="shadowBlurOuter1"></feColorMatrix>
        </filter>
        <linearGradient x1="50%" y1="0%" x2="50%" y2="100%" id="linearGradient-5">
            <stop stop-color="#EA2434" offset="0%"></stop>
            <stop stop-color="#E11324" offset="100%"></stop>
        </linearGradient>
        <path d="M11.858354,10.7266432 C11.4406897,10.9026854 10.9817094,11 10.5,11 C8.56700338,11 7,9.43299662 7,7.5 C7,5.56700338 8.56700338,4 10.5,4 C10.9817094,4 11.4406897,4.09731458 11.858354,4.27335677 C10.248101,4.46676227 9,5.83762633 9,7.5 C9,9.16237367 10.248101,10.5332377 11.858354,10.7266432 Z M10.5,12 C12.9852814,12 15,9.98528137 15,7.5 C15,5.01471863 12.9852814,3 10.5,3 C8.01471863,3 6,5.01471863 6,7.5 C6,9.98528137 8.01471863,12 10.5,12 Z M12.2656441,8.37757672 L11.3470294,9.49131539 L11.4096022,8.048973 L10.0665062,7.51948263 L11.4575914,7.13328462 L11.5461272,5.69230289 L12.3432923,6.89596178 L13.7411064,6.53487647 L12.8426963,7.66497659 L13.6180572,8.88279532 L12.2656441,8.37757672 Z" id="path-6"></path>
        <filter x="-50%" y="-50%" width="200%" height="200%" filterUnits="objectBoundingBox" id="filter-7">
            <feOffset dx="0" dy="0.5" in="SourceAlpha" result="shadowOffsetOuter1"></feOffset>
            <feColorMatrix values="0 0 0 0 0   0 0 0 0 0   0 0 0 0 0  0 0 0 0.06 0" type="matrix" in="shadowOffsetOuter1"></feColorMatrix>
        </filter>
    </defs>
    <g id="Flag-Kit" stroke="none" stroke-width="1" fill="none" fill-rule="evenodd">
        <g id="TN">
            <g id="BE-Copy-9" transform="translate(1.000000, 1.000000)">
                <mask id="mask-3" fill="white">
                    <use xlink:href="#path-2"></use>
                </mask>
                <g id="Mask">
                    <use fill="black" fill-opacity="1" filter="url(#filter-4)" xlink:href="#path-2"></use>
                    <use fill="url(#linearGradient-1)" fill-rule="evenodd" xlink:href="#path-2"></use>
                </g>
                <rect id="Mask-Copy" fill="url(#linearGradient-5)" mask="url(#mask-3)" x="0" y="0" width="21" height="15"></rect>
                <g id="Oval-41" mask="url(#mask-3)">
                    <use fill="black" fill-opacity="1" filter="url(#filter-7)" xlink:href="#path-6"></use>
                    <use fill="url(#linearGradient-1)" fill-rule="evenodd" xlink:href="#path-6"></use>
                </g>
                <rect id="Depth" mask="url(#mask-3)" x="0" y="0" width="21" height="15" rx="1.5"></rect>
            </g>
        </g>
    </g>
</svg>

<svg width="23" height="17" viewBox="0 0 23 17" xmlns="http://www.w3.org/2000/svg" xmlns:xlink="http://www.w3.org/1999/xlink"><title>TN</title><defs><linearGradient x1="50%" y1="0%" x2="50%" y2="100%" id="c"><stop stop-color="#FFF" offset="0%"/><stop stop-color="#F0F0F0" offset="100%"/></linearGradient><rect id="a" width="21" height="15" rx="1.5"/><filter x="-50%" y="-50%" width="200%" height="200%" filterUnits="objectBoundingBox" id="b"><feOffset dy=".5" in="SourceAlpha" result="shadowOffsetOuter1"/><feGaussianBlur stdDeviation=".5" in="shadowOffsetOuter1" result="shadowBlurOuter1"/><feColorMatrix values="0 0 0 0 0 0 0 0 0 0 0 0 0 0 0 0 0 0 0.16 0" in="shadowBlurOuter1"/></filter><linearGradient x1="50%" y1="0%" x2="50%" y2="100%" id="d"><stop stop-color="#EA2434" offset="0%"/><stop stop-color="#E11324" offset="100%"/></linearGradient><path d="M11.86 10.73A3.49 3.49 0 0 1 7 7.5a3.5 3.5 0 0 1 4.86-3.23 3.25 3.25 0 0 0 0 6.46zM10.5 12a4.5 4.5 0 1 0 0-9 4.5 4.5 0 0 0 0 9zm1.77-3.62l-.92 1.11.06-1.44-1.34-.53 1.39-.39.09-1.44.8 1.2 1.4-.36-.9 1.13.77 1.22-1.35-.5z" id="g"/><filter x="-50%" y="-50%" width="200%" height="200%" filterUnits="objectBoundingBox" id="f"><feOffset dy=".5" in="SourceAlpha" result="shadowOffsetOuter1"/><feColorMatrix values="0 0 0 0 0 0 0 0 0 0 0 0 0 0 0 0 0 0 0.06 0" in="shadowOffsetOuter1"/></filter></defs><g transform="translate(1 1)" fill="none" fill-rule="evenodd"><mask id="e" fill="#fff"><use xlink:href="#a"/></mask><use fill="#000" filter="url(#b)" xlink:href="#a"/><use fill="url(#c)" xlink:href="#a"/><path fill="url(#d)" mask="url(#e)" d="M0 0h21v15H0z"/><g mask="url(#e)"><use fill="#000" filter="url(#f)" xlink:href="#g"/><use fill="url(#c)" xlink:href="#g"/></g><rect mask="url(#e)" width="21" height="15" rx="1.5"/></g></svg>
